X:1
T:Domine, non secundum
T:Matthias Greiter
T:Source : Bicinia---Tomus I---Wittemberg---G.Rhau---1545. Editor : André Vierendeels (16/05/17).
T:Notes : Original clefs : C1, C3 Original note values have been halved Editorial accidentals above the staff Square brackets indicate ligatures Dotted brackets indicate black notes m 18 in T : "F" notated as quarter in original print
T:Domine, non secundum
T:©
T:©
T:©
C:Matthias Greiter
Z:©
%%score [ 1 2 ]
L:1/8
Q:1/4=120
M:2/2
K:F
V:1 treble nm="Soprano" snm="S"
V:2 treble-8 nm="Tenor" snm="T"
V:1
 G4 F4 | G4 F2 ED | E4 D4 | z2 E2 D2 G2- | G2 F2 G2 B2- | B2 A2 B2 G2 | A2 B2 A2 G2 | B4 G4 | %8
w: Do- mi-||* ne,|Do- * mi-||||ne, _|
 z2 G2 F2 G2- |"^b" G2 F2 E4 | D2 A2 G2 A2- | AG G4 F2 | G8- | G8 | z4 F4 | G2 B4 B2 | A4 A4 | %17
w: non se- cun-||||dum|_|pec-|ca- * *|ta no-|
 B4 A4 | G4 A4- | A2 B2 c4 | G8 | F4 z4 | A4 B4 | G2 G2 A4 | B4 G4 | A2 B2 G2 G2 | A2 B2 G4- | %27
w: * stra|_ _||||fa- *|ci- as no-|* bis,|fa- * ci- as|no- * *|
 G2 F3 G AB | c2 B4 A2 | B4 z2 F2 | A2 B4 G2 | G2 G2 A2 G2 | F2 A2 B4 | G4 z2 G2 | F2 G2 B2 A2 | %35
w: ||bis, ne-|que se- cun-|dum in- i- qui-|ta- tes no-|stras, no-||
 c2 B2 A2 B2- | B2 c2 cB B2- | B2 A2 B4 | z2 F2 B2 A2 | B2 c2 B2 A2 | G2 F2 G2 G2 | G2 F2 G2 F2 | %42
w: ||* * stras,|re- tri- *||* * bu- as|no- * * *|
 D2 G2 F3 G | AG B2 A2 G2 | cBAG F2 E2 | D2 G4 F2 | G8- | G8- | G8 |] %49
w: ||||bis.|_||
V:2
 z8 | z8 | c4 B4 | c4 B2 AG | A4 G4 | z2 A2 G2 c2- |"^b" c2 B2 c2 e2- |"^b" e2 d2 e2 c2 | %8
w: ||Do- *||mi- ne,|Do- * *|||
"^b" d2 e2 d2 c2 |"^b" e4 c4 | z2 c2 B2 c2- | c2 B2 A4 | G4 B4 |"^b""^b" c2 e4 e2 | d4 d4 | %15
w: |mi- ne,|non se- cun-|* dum pec-|ca- *||ta no-|
"^b" e4 d4 | c4 d4- |"^b" d2 e2 f4 | c8- | c8 | c4 B4 | d4 e4 | c2 c2 d4 | e4 c4 | z2 d2 e4 | %25
w: |||||stra _|fa- *|ci- as no-|* bis,|no- bis|
 c2 d2 e2 c2 | c2 d2 e2 c2 | B3 c de f2 |"^b" e2 d2 c4 | B8 | z2 B2 d2 e2- | e2 c2 c2 c2 | %32
w: fa- * ci- as|no- * * *|||bis,|ne- qie se-|* cun- dum in-|
 d2 c2 B2 d2 | e4 c4 | z2 c2 B2 c2 |"^b""^b" e2 d2 f2 e2 |"^b" d2 e4 d2 | c4 B4- | B4 z2 F2 | %39
w: i- qui ta- *|* tes|no- * *|||* stras,|_ re-|
 B2 A2 B2 c2 | B2 A2 G2 c2 | B2 A2 G2 A2 |"^#" B2 GA Bcde | fe d2 c2 e2- | edcB A2 G2 | B2 c2 A4 | %46
w: tri- * * *||* bu- as no-|||||
 G2 c4 B2- | B2 c4 BA | G8 |] %49
w: ||bis.|

